X: 08066
T: LUCY'S JIG
C: Bob McQuillen 22 Jan 91
B: Bob's Note Book 8 #66
%R: jig
Z: 2021 John Chambers <jc:trillian.mit.edu>
M: 6/8
L: 1/8
K: G
D \
| GBA GBA | GFE D2D | GBd ded | dBG A2D |\
| GBA GBA | GFE DGB | dBG AGA | BGG G2 :|
|: d \
| efg efg | age d2c | Bcd edc | BAG A2B |\
| cde edc | Bcd dBd | efg dcB | AGF G2 :|
%%begintext align
%% Lucy Young is a most dedicated & enthusiastic
%% dancer from Fairlee, Vt. She's Sarah Young's
%% mother, & besides that she also distinguished herself by
%% winning 1st prize for her costume at the Halloween
%% Dance in Dublin in 1988. She was wearing 2 hats at
%% the time. Know why? She had 2 heads! Fabulous!
%%endtext

%%sep 1 1 500

%%sep 1 1 500

